X:1
T:Title
%%score { ( 1 4 ) | ( 2 3 ) }
L:1/8
Q:1/4=100
M:4/4
K:Eb
V:1 treble nm="Grand Piano"
V:4 treble 
V:2 bass 
V:3 bass 
V:1
 [GB]2 [EG]>A [GB]<B [Ac]>c | z4 [GB]4 | [FA]2 [DF]>G [FA]>B c>e | [Bd]>c B>A z2 B,2 | %4
w: Chas.~H.~Gabriel * * * * * *||||
 [GB]2 [EG]>A [GB]>B [Ac]>c | z4 [GB]4 | [Ad]2 [FB]>B e<e B>c |[M:3/4] d>d [Ec]>[Ec] [DB]2 | %8
w: ||||
[M:1/4] [GB]>[G=B] |[M:4/4] [Ac]2 [GB]2 [FA]2 [EG]>[DF] | [EB]2 [AB]2 [GB]2 [GB]>[GB] | %11
w: |||
 [Gd]2 [GB]2 [_Gd]2 [CA]2 | d2 d2 [Ad]4 | [Ge]>[Ge] [Ad]>[Ac] [GB]>[Ac] [GB]>G | %14
w: |||
[M:35/32] E>FG>AB>c[G_d]/ [Gd]2- [Gd]/4 | %15
w: |
[M:4/4] (5:4:5c2- c/ e/-e3/2e/ [Ge]3/4 z/4 z (3:2:2[EG]2 [EG] | %16
w: |
 (5:4:5[GB]2 [FA]/ [EG]/-[EG]3/2[DF]/ E4 |] %17
w: |
V:2
 E,2 z z/[K:treble] F/ z/ G3/2 z z/ A/ | E,2 [G,B,]2 E,2 G,2 | B,,2 z z/ E/ z z/[K:treble] G/ A>c | %3
 z z/[K:treble] A/ G>F[K:bass] E,2 G,2 | E,2 z z/ F/ z z/[K:treble] G/ z z/ A/ | %5
 E,2 [G,B,]2 E,2 G,2 | [F,B,]2 z z/[K:treble] F/ E<E E>E |[M:3/4][K:bass] F>F =A,2 [B,,B,]2 | %8
[M:1/4] [B,,B,]>[B,,B,] |[M:4/4] [B,,B,]2 [B,,B,]2 [B,,B,]2 [B,,B,]>[A,B,] | %10
 [G,B,]2 [F,D]2 [E,E]2 [E,E]>[E,B,] | [D,B,]2 [D,B,]2 [D,=A,]2 =E,>_G, | %12
 [G,B,G]2 [G,B,G]2[K:bass] [F,B,]4 | [E,B,]>[E,B,] [E,C]>[E,D] [E,E]>[E,E] [E,E]>[E,B,E] | %14
[M:35/32] E,>F,G,>A,B,>C[E,B,]/ [E,B,]2- [E,B,]/4 | %15
[M:4/4] (5:4:5[A,E]2- [A,E]/ [=A,,C_G]/-[A,,CG]3/2[A,,CG]/ [B,,B,]3/4 z/4 z (3:2:2[B,,B,]2 [B,,B,] | %16
 (5:4:5[B,,B,]2 [B,,B,]/ [B,,B,]/-[B,,B,]3/2[B,,A,]/ [E,G,]4 |] %17
V:3
 z2 [G,B,]2[K:treble] E,2 [G,B,E]2 | x8 | z2 [A,B,]2 B,,2[K:treble] [A,B,D]2 | %3
 B,,2[K:treble] [A,B,D]2[K:bass] z4 | z2 [G,B,]2 E,2[K:treble] [G,B,E]2 | x8 | %6
 z2 [A,B,]2[K:treble] [G,B,]2 [G,B,]2 |[M:3/4][K:bass] [F,-B,]2 F,2 z2 |[M:1/4] x2 |[M:4/4] x8 | %10
 x8 | x8 | x4[K:bass] x4 | x8 |[M:35/32] x35/4 |[M:4/4] z4 z/ B,,3/2- B,,/4 z/4 z/ z | x8 |] %17
V:4
 x8 | [GB]>G E>G z2 [B,E]2 | x8 | z4 [EG]4 | x8 | [GB]>G E>G z2 [B,E]2 | x8 |[M:3/4] x6 | %8
[M:1/4] x2 |[M:4/4] x8 | x8 | x8 | x8 | x8 |[M:35/32] x35/4 | %15
[M:4/4] z4 z/ [EGB]3/2- [EGB]/4 z/4 z/ z | x8 |] %17

